images/icons/revolut.svg

<svg fill="none" height="24" viewBox="0 0 24 24" width="24" xmlns="http://www.w3.org/2000/svg"><g fill="#000" stroke="#191c1f"><path d="m7.2666 6.42627h-4.14795v16.54333h4.14795z"/><path d="m20.2745 7.37234c0-3.51038-2.8983-6.36636-6.4609-6.36636h-10.69495v3.53297h10.18645c1.6122 0 2.9477 1.2493 2.9773 2.78476.0147.76882-.2779 1.49443-.8238 2.04308-.5462.54888-1.2759.85131-2.0547.85131h-3.96811c-.14089 0-.25558.1129-.25558.2519v3.1399c0 .0535.01672.1045.04821.1475l6.73258 9.2123h4.9283l-6.7482-9.2375c3.3984-.1683 6.1334-2.9845 6.1334-6.35986z"/></g></svg>

<svg width="24" height="24" viewBox="0 0 24 24" fill="none" xmlns="http://www.w3.org/2000/svg">
<path d="M7.2666 6.42627H3.11865V22.9696H7.2666V6.42627Z" fill="black" stroke="#191C1F"/>
<path d="M20.2745 7.37234C20.2745 3.86196 17.3762 1.00598 13.8136 1.00598H3.11865V4.53895H13.3051C14.9173 4.53895 16.2528 5.78825 16.2824 7.32371C16.2971 8.09253 16.0045 8.81814 15.4586 9.36679C14.9124 9.91567 14.1827 10.2181 13.4039 10.2181H9.43579C9.2949 10.2181 9.18021 10.331 9.18021 10.47V13.6099C9.18021 13.6634 9.19693 13.7144 9.22842 13.7574L15.961 22.9697H20.8893L14.1411 13.7322C17.5395 13.5639 20.2745 10.7477 20.2745 7.37234Z" fill="black" stroke="#191C1F"/>
</svg>
